X:565
T: The Master's Flax in Bloom
T: Lion faoi Bhl\'ath
S: B.Breathnach:"Ceol Rince na hEireann" IV/114
Z: B.Black
N: "The master" = Michael McDermott (fiddler, Co. Tyrone, d.1947)
L: 1/8
M: 4/4
R: reel
K: D
D2 (3FED FAAf|(3gfe fd edBd|(3ABA FA dfaf|gafd edBd|
D2 (3FED FAAf|(3gfe fd edBd|ABAF ABdf|ageg fd d2 :|
(3fgf df (3efe ce|dcdB AGFA|DFAd FAdf|(3gfe fd edBd|
(3fgf df (3efe ce|dcdB AGFA|DFAc defg|ageg fd d2 :|
faaf gefd|(3fga fd edBd|ABAF ABdf|(3gfe fd edBd|
faaf gefd|(3fga fd edBd|ABAF ABdf|ageg fd d2 :|
